X:1
T:Title
L:1/8
Q:1/4=120
M:6/4
K:G
V:1 treble nm="Voice"
V:1
!ped! G4!ped! G2!ped! G4!ped! E2 | D4 ^C2!ped! D6 |!ped! G4 G2!ped! G4!ped! E2 | %3
 D4!ped! ^C2!ped! D6 |!ped! F4 F2!mf! G4 G2 | (A2 G2)!ped! A2 |!ped! c2!ped! B2 | %7
 ((^c2 B2)) c2 B2 | A6!ped! A6 |!ped! D6- D4 z2 | G4 D2 D2 | G6 | A2 |!ped! G6- G4 z2 | %14
 G4 F2 G4 E2 | D4 G2 | A4 ^G2 A4 F2 | =G4 B2 e2 | d6 F6 | G6- G4 z2 |] %20

